Papirus-Adapta/22x22/actions/document-new.svg

<svg xmlns="http://www.w3.org/2000/svg" width="22" height="22" viewBox="0 0 22 22">
 <defs>
  <style id="current-color-scheme" type="text/css">
   .ColorScheme-Text { color:#414c52; } .ColorScheme-Highlight { color:#00b4cb; }
  </style>
 </defs>
 <path style="fill:currentColor" class="ColorScheme-Text" d="m2.8438 1.0078c-0.2811 0.0437-0.8438 0.2339-0.8438 0.9336v12.127c0 0.933 1 0.934 1 0.934h9.99c0.999 0 1-0.934 1-0.934 0.019-0.043 0.005-6.9516 0-9.3278l-3.9959-3.7324h-6.9941s-0.0625-0.01454-0.1562 0zm4.1562 3.9961h2v2h2v2h-2v2.0001h-2v-2.0001h-2v-2h2v-2z" transform="translate(3 3)"/>
</svg>

<svg xmlns="http://www.w3.org/2000/svg" width="22" height="22" version="1.1">
 <defs>
  <style id="current-color-scheme" type="text/css">
   .ColorScheme-Text { color:#444444; } .ColorScheme-Highlight { color:#4285f4; } .ColorScheme-NeutralText { color:#ff9800; } .ColorScheme-PositiveText { color:#4caf50; } .ColorScheme-NegativeText { color:#f44336; }
  </style>
 </defs>
 <g transform="translate(3,3)">
  <path style="fill:currentColor" class="ColorScheme-Text" d="M 3,1 C 3,1 2,1 2,2 V 14 C 2,15 3,15 3,15 H 13 C 14,15 14,14 14,14 V 5 L 10,1 Z M 7,5 H 9 V 7 H 11 V 9 H 9 V 11 H 7 V 9 H 5 V 7 H 7 Z"/>
 </g>
</svg>
